preview/public/favicon.svg

<svg fill="none" height="32" viewBox="0 0 32 32" width="32" xmlns="http://www.w3.org/2000/svg"><g fill="#2c7f50"><path d="m16.4298 31.7265c-.177-.4668-.7377-1.8939-.8825-2.2479l-.1368-.3354-.0081-5.7136c-.0027-3.1439-.0108-5.8237-.0161-5.9578-.008-.2199-.0188-.2656-.1073-.4479-.1207-.2415-.3004-.4185-.5553-.5392l-.1743-.0832-2.6959-.0161v-.0885c0-.1797.3701-.9335.8262-1.6792l.2361-.389 1.6899-.0268.1798-.0912c.1985-.102.4076-.3031.5016-.4828.0724-.1449.1341-.4266.1341-.6224v-.1529l.625-.2441c.3659-.1466.7325-.2915 1.0998-.4346.3219-.1287.5016-.185.5633-.1797l.0858.008-.008.55c-.0053.3031.0027.633.0188.735.0536.3729.2736.6706.6143.8396l.1529.0751 4.0774.0268.2413.1368c.2042.1136.4099.2245.617.3326.3514.1851.778.4212.9201.5124.0483.0295.0591.0563.0537.1395l-.0081.1019-.523.2817c-.2871.1529-.6787.3621-.8719.4614l-.3487.1797-4.1042.0268-.169.0886c-.2038.1072-.3755.2575-.4855.4318-.1771.2737-.1636-.2333-.1771 6.2904l-.0133 5.9309-.0832.228c-.0456.1261-.2119.5607-.3648.9657-.1556.4051-.3595.9443-.4507 1.1937l-.169.4561-.0912.008-.0885.0054z"/><path d="m18.117 27.0509c-.0081-.2414-.0108-.4534-.0027-.4667.0107-.0135.0858-.0644.1717-.1127.4613-.2656.6464-.7216.456-1.132-.0885-.1878-.3354-.4533-.4936-.5311l-.1181-.0564v-1.7918h.0886c.0509 0 .2092.067.4077.169.9496.4935 1.4593 1.022 1.6417 1.7087.0617.2387.0617.7806-.0027 1.0193-.161.5982-.6036 1.0918-1.2473 1.3895-.2952.1368-.6385.2468-.7699.2468h-.11zm-3.447-2.956c-.0376-.0054-.2415-.0349-.456-.0645-.7377-.1019-1.639-.3111-2.256-.523-.8933-.3059-1.8214-.794-2.56717-1.3493-.39163-.2924-1.132-1.014-1.40557-1.3707-1.15887-1.5049-1.63631-3.101-1.49687-5.0029.14219-1.9581.9335-3.5194 2.41425-4.7533.88525-.7403 1.85626-1.26078 3.43896-1.84284.1422-.05369.5901-.1985.9925-.32194.6867-.21187 1.1427-.32994 3.8842-1.00587 1.7436-.42925 2.543-.71894 3.2136-1.16425.4882-.32725.8799-.79125.9523-1.132.0509-.24407-.0886-.64107-.3273-.94688-.4587-.57937-1.6094-1.04887-2.6878-1.09712-1.1052-.04832-2.2506.338-3.624 1.2205-1.0247.65718-1.7731.99787-2.4143 1.09443-.3299.051-.8878.03488-1.132-.0295-.1985-.05362-.4452-.177-.6115-.30312-.1154-.08581-.1288-.10725-.1288-.1985 0-.07775.0107-.10188.0483-.10463.0241 0-.1342-.03218-.3568-.06706-1.18836-.19044-1.3493-.24944-1.67655-.63575-.23337-.27356-.34875-.515-.34875-.72962 0-.23607.05906-.41038.17975-.52844.05631-.05363.24681-.17169.42381-.26556.17707-.09125.42388-.22532.54994-.29775.48013-.27363 1.3573-.69207 1.5907-.75913.4051-.11537.5419-.12875 1.3949-.13681.4533-.00538.9201-.02144 1.0327-.0375.4051-.05375.7485-.17713 1.3252-.47219 1.4324-.732311 1.7141-.852999 2.3633-1.019374.3621-.091125.9468-.1877497 1.3841-.2279372.5257-.045625 1.6255-.01875001 2.1084.0563125 1.0113.1528747 1.926.4640627 2.6825.9093747 1.2581.743004 2.0199 1.791874 2.2988 3.168004.0564.27893.0618.38087.0618 1.04612 0 .82356-.0242.99519-.22 1.58-.4533 1.35731-1.6068 2.47594-3.5543 3.45233-.9872.4936-1.8804.8047-3.4282 1.191-.9201.2307-2.3176.7002-3.3396 1.124-.5795.2414-1.3815.6411-1.6766.8342-1.0596.6975-1.7678 1.7115-2.0548 2.9373-.0697.3005-.0751.3622-.0751.8852 0 .4829.0081.6036.059.8397.2012.9227.5902 1.655 1.2233 2.3096.6115.6304 1.36 1.1025 2.4732 1.5585.0536.0214.0563.0483.0724.5124.0107.2682.0188.7591.0188 1.089v.5982l-.1395-.0027c-.0778-.0027-.1717-.008-.2092-.016zm-2.7335-18.8766c.3102-.07938.6042-.21188.8691-.39163.2951-.20387.287-.22269-.0241-.06175-.6438.33-1.0622.43725-1.7249.44-.303 0-.4023.008-.3433.02675.2924.09125.837.08588 1.2232-.01337zm-.0536-1.78119c.2924-.14219.4962-.287.4372-.31113-.1421-.05368-.4641.01069-.802.16363-.1181.05362-.279.118-.3595.14212l-.1475.04563.0939.0295c.1663.051.1958.05631.3755.04831.1448-.00812.2226-.0295.4024-.11806z"/><path d="m15.4127 7.67812c-.0107-.00806-.0188-.0885-.0188-.17706 0-.15019-.0027-.15825-.059-.14481-.7323.177-1.0998.21725-1.8429.1985-.6893-.01613-.9227-.05369-1.4646-.23606-.582-.1985-.9979-.44532-1.3251-.78869-.2924-.30844-.4855-.64644-.4855-.84763 0-.09925.0053-.10462.0831-.10462.0671 0 .1261.04025.3058.20925.3675.346.8235.57937 1.3708.70012 1.0247.228 2.0709.04557 3.4845-.60087.9925-.45338 1.7275-.69213 2.4679-.79669.1341-.01875.4667-.03219.7511-.03219.582.00263.9737.059 1.4163.20382l.2602.08318v.10463c0 .0885-.008.10187-.0644.10187-.0349 0-.1824.02419-.3272.05375-.7135.14482-1.2903.41038-1.7088.78057-.1851.16093-.3916.44525-.4292.58475-.0375.13681-.0563.14756-.4345.25218-1.4432.40507-1.9234.515-1.9797.456z"/></g></svg>

<svg
  width="32"
  height="32"
  viewBox="0 0 32 32"
  fill="none"
  xmlns="http://www.w3.org/2000/svg"
>
  <g clip-path="url(#clip0_3166_9)">
    <path
      d="M16.4279 31.7248C16.2509 31.258 15.6902 29.8309 15.5454 29.4769L15.4086 29.1415L15.4005 23.4279C15.3978 20.284 15.3897 17.6042 15.3844 17.4701C15.3764 17.2502 15.3656 17.2045 15.2771 17.0222C15.1564 16.7807 14.9767 16.6037 14.7218 16.483L14.5475 16.3998L11.8516 16.3837V16.2952C11.8516 16.1155 12.2217 15.3617 12.6778 14.616L12.9139 14.227L14.6038 14.2002L14.7836 14.109C14.9821 14.007 15.1912 13.8059 15.2852 13.6262C15.3576 13.4813 15.4193 13.1996 15.4193 13.0038V12.8509L16.0443 12.6068C16.4102 12.4602 16.7768 12.3153 17.1441 12.1722C17.466 12.0435 17.6457 11.9872 17.7074 11.9925L17.7932 12.0005L17.7852 12.5505C17.7799 12.8536 17.7879 13.1835 17.804 13.2855C17.8576 13.6584 18.0776 13.9561 18.4183 14.1251L18.5712 14.2002L22.6486 14.227L22.8899 14.3638C23.0941 14.4774 23.2998 14.5883 23.5069 14.6964C23.8583 14.8815 24.2849 15.1176 24.427 15.2088C24.4753 15.2383 24.4861 15.2651 24.4807 15.3483L24.4726 15.4502L23.9496 15.7319C23.6625 15.8848 23.2709 16.094 23.0777 16.1933L22.729 16.373L18.6248 16.3998L18.4558 16.4884C18.252 16.5956 18.0803 16.7459 17.9703 16.9202C17.7932 17.1939 17.8067 16.6869 17.7932 23.2106L17.7799 29.1415L17.6967 29.3695C17.6511 29.4956 17.4848 29.9302 17.3319 30.3352C17.1763 30.7403 16.9724 31.2795 16.8812 31.5289L16.7122 31.985L16.621 31.993L16.5325 31.9984L16.4279 31.7248Z"
      fill="#2C7F50"
    />
    <path
      d="M18.117 27.0509C18.1089 26.8095 18.1062 26.5975 18.1143 26.5842C18.125 26.5707 18.2001 26.5198 18.286 26.4715C18.7473 26.2059 18.9324 25.7499 18.742 25.3395C18.6535 25.1517 18.4066 24.8862 18.2484 24.8084L18.1303 24.752V22.9602H18.2189C18.2698 22.9602 18.4281 23.0272 18.6266 23.1292C19.5762 23.6227 20.0859 24.1512 20.2683 24.8379C20.33 25.0766 20.33 25.6185 20.2656 25.8572C20.1046 26.4554 19.662 26.949 19.0183 27.2467C18.7231 27.3835 18.3798 27.4935 18.2484 27.4935H18.1384L18.117 27.0509ZM14.67 24.0949C14.6324 24.0895 14.4285 24.06 14.214 24.0304C13.4763 23.9285 12.575 23.7193 11.958 23.5074C11.0647 23.2015 10.1366 22.7134 9.39083 22.1581C8.9992 21.8657 8.25883 21.1441 7.98526 20.7874C6.82639 19.2825 6.34895 17.6864 6.48839 15.7845C6.63058 13.8264 7.42189 12.2651 8.90264 11.0312C9.78789 10.2909 10.7589 9.77042 12.3416 9.18836C12.4838 9.13467 12.9317 8.98986 13.3341 8.86642C14.0208 8.65455 14.4768 8.53648 17.2183 7.86055C18.9619 7.4313 19.7613 7.14161 20.4319 6.6963C20.9201 6.36905 21.3118 5.90505 21.3842 5.5643C21.4351 5.32023 21.2956 4.92323 21.0569 4.61742C20.5982 4.03805 19.4475 3.56855 18.3691 3.5203C17.2639 3.47198 16.1185 3.8583 14.7451 4.7408C13.7204 5.39798 12.972 5.73867 12.3308 5.83523C12.0009 5.88623 11.443 5.87011 11.1988 5.80573C11.0003 5.75211 10.7536 5.62873 10.5873 5.50261C10.4719 5.4168 10.4585 5.39536 10.4585 5.30411C10.4585 5.22636 10.4692 5.20223 10.5068 5.19948C10.5309 5.19948 10.3726 5.1673 10.15 5.13242C8.96164 4.94198 8.8007 4.88298 8.47345 4.49667C8.24008 4.22311 8.1247 3.98167 8.1247 3.76705C8.1247 3.53098 8.18376 3.35667 8.30445 3.23861C8.36076 3.18498 8.55126 3.06692 8.72826 2.97305C8.90533 2.8818 9.15214 2.74773 9.2782 2.6753C9.75833 2.40167 10.6355 1.98323 10.8689 1.91617C11.274 1.8008 11.4108 1.78742 12.2638 1.77936C12.7171 1.77398 13.1839 1.75792 13.2965 1.74186C13.7016 1.68811 14.045 1.56473 14.6217 1.26967C16.0541 0.537359 16.3358 0.416671 16.985 0.250296C17.3471 0.159171 17.9318 0.0625463 18.3691 0.0223588C18.8948 -0.0232662 19.9946 0.00360879 20.4775 0.0786713C21.4888 0.231546 22.4035 0.542734 23.16 0.988046C24.4181 1.73105 25.1799 2.77992 25.4588 4.15605C25.5152 4.43498 25.5206 4.53692 25.5206 5.20217C25.5206 6.02573 25.4964 6.19736 25.3006 6.78217C24.8473 8.13948 23.6938 9.25811 21.7463 10.2345C20.7591 10.7281 19.8659 11.0392 18.3181 11.4255C17.398 11.6562 16.0005 12.1257 14.9785 12.5495C14.399 12.7909 13.597 13.1906 13.3019 13.3837C12.2423 14.0812 11.5341 15.0952 11.2471 16.321C11.1774 16.6215 11.172 16.6832 11.172 17.2062C11.172 17.6891 11.1801 17.8098 11.231 18.0459C11.4322 18.9686 11.8212 19.7009 12.4543 20.3555C13.0658 20.9859 13.8143 21.458 14.9275 21.914C14.9811 21.9354 14.9838 21.9623 14.9999 22.4264C15.0106 22.6946 15.0187 23.1855 15.0187 23.5154V24.1136L14.8792 24.1109C14.8014 24.1082 14.7075 24.1029 14.67 24.0949ZM11.9365 5.2183C12.2467 5.13892 12.5407 5.00642 12.8056 4.82667C13.1007 4.6228 13.0926 4.60398 12.7815 4.76492C12.1377 5.09492 11.7193 5.20217 11.0566 5.20492C10.7536 5.20492 10.6543 5.21292 10.7133 5.23167C11.0057 5.32292 11.5503 5.31755 11.9365 5.2183ZM11.8829 3.43711C12.1753 3.29492 12.3791 3.15011 12.3201 3.12598C12.178 3.0723 11.856 3.13667 11.5181 3.28961C11.4 3.34323 11.2391 3.40761 11.1586 3.43173L11.0111 3.47736L11.105 3.50686C11.2713 3.55786 11.3008 3.56317 11.4805 3.55517C11.6253 3.54705 11.7031 3.52567 11.8829 3.43711Z"
      fill="#2C7F50"
    />
    <path
      d="M15.4146 7.67934C15.4039 7.67128 15.3959 7.59084 15.3959 7.50228C15.3959 7.35209 15.3932 7.34403 15.3369 7.35747C14.6046 7.53447 14.237 7.57472 13.4939 7.55597C12.8046 7.53984 12.5713 7.50228 12.0294 7.31991C11.4474 7.12141 11.0315 6.87459 10.7043 6.53122C10.4119 6.22278 10.2188 5.88478 10.2188 5.68359C10.2188 5.58434 10.2241 5.57897 10.3019 5.57897C10.369 5.57897 10.4279 5.61922 10.6076 5.78822C10.9751 6.13422 11.4311 6.36759 11.9784 6.48834C13.0031 6.71634 14.0494 6.53391 15.463 5.88747C16.4555 5.43409 17.1905 5.19534 17.9309 5.09078C18.065 5.07203 18.3976 5.05859 18.682 5.05859C19.264 5.06122 19.6557 5.11759 20.0983 5.26241L20.3585 5.34559V5.45022C20.3585 5.53872 20.3505 5.55209 20.2941 5.55209C20.2592 5.55209 20.1116 5.57628 19.9668 5.60584C19.2533 5.75066 18.6765 6.01622 18.258 6.38641C18.0729 6.54734 17.8665 6.83166 17.8289 6.97116C17.7914 7.10797 17.7726 7.11872 17.3944 7.22334C15.9512 7.62841 15.4709 7.73834 15.4146 7.67934Z"
      fill="#2C7F50"
    />
  </g>
</svg>
